X:1
T:St. Ambrose (Cecil), 87.87 D
T:Richard Cecil (1748-1810)
T:St. Ambrose (Cecil), 87.87 D
T:Public Domain
C:Richard Cecil (1748-1810)
Z:Public Domain
%%score ( 1 2 ) ( 3 4 )
L:1/8
M:4/4
K:Bb
V:1 treble 
V:2 treble 
V:3 bass 
V:4 bass 
V:1
 [DF]2 [EG]2 [DF]3 [FB] | [FA]2 [DB]2 [Ec]2 [DB]2 | [Fc]2 [Fd]2 [Fc]3 [FB] | [FA]2 [=EG]2 F4 | %4
 [DF]2 [EG]2 [DF]3 [FB] | [FA]2 [FB]2 [Fc]2 [FB]2 | [Fc]2 =E2 [DF]3 [FB] | [FA]2 [=EG]2 F4 | %8
 [B,F]2 [CE]2 [A,D]3 [DG] | [Dc]2 [DB]2 [DB]2 [DA]2 | [Dd]2 [DA]2 [DB]2 ([DA][=EG]) | %11
 [DF]2 [^C=E]2 D4 | [DF]2 F2 E2 z G x | [CA]2 [FA]2 [FB]2 F2 | [Fe]2 [Fd]2 [Ec]2 [DB]2 | %15
 [CB]2 [EA]2 [DB]4 |] %16
V:2
 x8 | x8 | x8 | x4 F4 | x8 | x8 | x2 =E2 x4 | x4 F4 | x8 | x8 | x8 | x4 D4 | x2 F2 G3 E2 | x6 F2 | %14
 x8 | x8 |] %16
V:3
 [B,,B,]2 [E,B,]2 [B,,B,]3 [D,B,] | [F,C]2 [G,B,]2 [F,A,]2 [B,,B,]2 | %2
 [A,,F,]2 [B,,B,]2 [C,A,]3 [D,F,] | [C,C]2 (CB,) [F,A,]4 | [B,,B,]2 [E,B,]2 [B,,B,]3 [D,B,] | %5
 (F,E,)(D,B,,) [A,,E]2 [B,,D]2 | [A,,C]2 (CB,) [D,A,]3 [B,,D] | [C,C]2 (CB,) [F,A,]4 | %8
 [D,F,]2 [C,G,]2 [D,^F,]3 [B,,G,] | [A,,^F,]2 [G,,G,]2 [D,G,]2 [D,F,]2 | %10
 [^F,A,]2 [D,F,]2 G,2 ([=F,A,][G,B,]) | A,2 (A,G,) [D,F,]4 | [B,,B,]2 [D,B,]2 [E,B,]2 [C,C]2 x | %13
 [F,C]2 [E,C]2 [D,B,]2 [B,,D]2 | [A,,C]2 [B,,B,]2 [F,A,]2 [G,B,]2 | [E,G,]2 F,2 [B,,F,]4 |] %16
V:4
 x8 | x8 | x8 | x2 C,2 x4 | x8 | C2 D2 x4 | x2 C,2 x4 | x2 C,2 x4 | x8 | x8 | x4 G,2 x2 | %11
 A,2 A,,2 x4 | x9 | x8 | x8 | x2 F,2 x4 |] %16

